X: 1
T: The Road To Cashel
R: reel
M: 4/4
L: 1/8
K: Edor
FEED E2E2|FE~E2 deBd|FEED E2BA|1 FDD2 dABd:|2 FAdA BdAd||
~B3d fgfe|dfab afed|(3Bcd ge ~f3e|dBAF FEE2|
~B3d fgfe|dfab afef|bf~f2 af~f2|bfaf edBA||


Tune 3270	Setting 16338

